svgs/sharp-light/plug-circle-plus.svg

<svg xmlns="http://www.w3.org/2000/svg" viewBox="0 0 576 512"><!--! Font Awesome Pro 6.6.0 by @fontawesome - https://fontawesome.com License - https://fontawesome.com/license (Commercial License) Copyright 2024 Fonticons, Inc. --><path d="M128 0l0 16 0 96-32 0 0-96L96 0l32 0zM288 0l0 16 0 96-32 0 0-96 0-16 32 0zM0 144l16 0 16 0 32 0 256 0 32 0 16 0 16 0 0 32-16 0-16 0 0 35.2c-11.4 5.9-22.2 12.9-32 21l0-56.2L64 176l0 64c0 70.7 57.3 128 128 128c23.7 0 45.8-6.4 64.9-17.6c-.6 5.8-.9 11.7-.9 17.6c0 6.2 .3 12.3 .9 18.3c-15.2 6.8-31.7 11.2-48.9 12.9l0 96.8 0 16-32 0 0-16 0-96.8C95.1 391.2 32 323 32 240l0-64-16 0L0 176l0-32zM432 256a112 112 0 1 1 0 224 112 112 0 1 1 0-224zm0 256a144 144 0 1 0 0-288 144 144 0 1 0 0 288zm16-224l-32 0 0 16 0 48-48 0-16 0 0 32 16 0 48 0 0 48 0 16 32 0 0-16 0-48 48 0 16 0 0-32-16 0-48 0 0-48 0-16z"/></svg>

<svg xmlns="http://www.w3.org/2000/svg" viewBox="0 0 576 512"><!--! Font Awesome Pro 6.4.2 by @fontawesome - https://fontawesome.com License - https://fontawesome.com/license (Commercial License) Copyright 2023 Fonticons, Inc. --><path d="M128 0V16v96H96V16 0h32zM288 0V16v96H256V16 0h32zM0 144H16 32 64 320h32 16 16v32H368 352v35.2c-11.4 5.9-22.2 12.9-32 21V176H64v64c0 70.7 57.3 128 128 128c23.7 0 45.8-6.4 64.9-17.6c-.6 5.8-.9 11.7-.9 17.6c0 6.2 .3 12.3 .9 18.3c-15.2 6.8-31.7 11.2-48.9 12.9V496v16H176V496 399.2C95.1 391.2 32 323 32 240V176H16 0V144zM432 256a112 112 0 1 1 0 224 112 112 0 1 1 0-224zm0 256a144 144 0 1 0 0-288 144 144 0 1 0 0 288zm16-224H416v16 48H368l-16 0v32l16 0h48v48l0 16h32l0-16V384h48 16V352H496 448V304 288z"/></svg>
